DIBUJABLE/aimg/ok.svg

<svg clip-rule="evenodd" fill-rule="evenodd" stroke-linejoin="round" stroke-miterlimit="2" viewBox="0 0 30 30" xmlns="http://www.w3.org/2000/svg"><path d="m9.631 17.307 14.91-12.793c.49-.421 1.22-.398 1.684.052.464.449.508 1.178.103 1.681l-15.926 19.756c-.252.313-.64.486-1.042.464-.401-.022-.768-.236-.984-.575l-5.697-8.917c-.293-.457-.256-1.051.089-1.469.346-.419.922-.566 1.427-.365z" fill="#fff" transform="translate(.45676)"/></svg>

<?xml version="1.0" encoding="UTF-8" standalone="no"?>
<!DOCTYPE svg PUBLIC "-//W3C//DTD SVG 1.1//EN" "http://www.w3.org/Graphics/SVG/1.1/DTD/svg11.dtd">
<svg width="100%" height="100%" viewBox="0 0 30 30" version="1.1" xmlns="http://www.w3.org/2000/svg" xmlns:xlink="http://www.w3.org/1999/xlink" xml:space="preserve" xmlns:serif="http://www.serif.com/" style="fill-rule:evenodd;clip-rule:evenodd;stroke-linejoin:round;stroke-miterlimit:2;">
    <g transform="matrix(1,0,0,1,0.45676,0)">
        <path d="M9.631,17.307L24.541,4.514C25.031,4.093 25.761,4.116 26.225,4.566C26.689,5.015 26.733,5.744 26.328,6.247L10.402,26.003C10.15,26.316 9.762,26.489 9.36,26.467C8.959,26.445 8.592,26.231 8.376,25.892L2.679,16.975C2.386,16.518 2.423,15.924 2.768,15.506C3.114,15.087 3.69,14.94 4.195,15.141L9.631,17.307Z" style="fill:white;"/>
    </g>
</svg>
